public/sheesh/vuesaxbulktrendup1.svg

<svg fill="none" height="32" viewBox="0 0 32 32" width="32" xmlns="http://www.w3.org/2000/svg" xmlns:xlink="http://www.w3.org/1999/xlink"><linearGradient id="a" gradientUnits="userSpaceOnUse" x1="15.9937" x2="15.9937" y1="29.333" y2="2.66634"><stop offset="0" stop-color="#dc5252"/><stop offset="1" stop-color="#aa4e4e"/></linearGradient><linearGradient id="b" gradientUnits="userSpaceOnUse" x1="16.0189" x2="16.0189" y1="20.0264" y2="11.9597"><stop offset="0" stop-color="#ff4c4c"/><stop offset="1" stop-color="#ff4c4c" stop-opacity=".54"/></linearGradient><path d="m21.587 29.333h-11.1733c-4.85337 0-7.74671-2.8933-7.74671-7.7467v-11.16c0-4.86662 2.89334-7.75996 7.74671-7.75996h11.16c4.8533 0 7.7466 2.89334 7.7466 7.74666v11.1733c.0134 4.8534-2.88 7.7467-7.7333 7.7467z" fill="url(#a)" opacity=".25"/><path d="m22.4406 19.453c-.0934.2267-.28.4134-.5067.5067-.1067.04-.2267.0667-.3467.0667h-2.48c-.52 0-.9333-.4134-.9333-.9334s.4133-.9333.9333-.9333h.24l-2.8133-2.8133-1.36 2.0266c-.16.2267-.4.3867-.68.4134-.2933.0266-.5467-.0667-.7467-.2667l-3.97329-3.9733c-.36-.36-.36-.9467 0-1.32.18666-.1867.41329-.2667.65329-.2667s.48.0933.6534.2667l3.1733 3.1733 1.36-2.0267c.16-.2266.4-.3866.68-.4133.2933-.0267.5467.0667.7467.2667l3.6266 3.6266v-.24c0-.52.4134-.9333.9334-.9333s.9333.4133.9333.9333v2.4934c-.0267.12-.04.24-.0933.3466z" fill="url(#b)"/></svg>

<svg width="32" height="32" viewBox="0 0 32 32" fill="none" xmlns="http://www.w3.org/2000/svg">
<path opacity="0.25" d="M21.587 29.333H10.4137C5.56033 29.333 2.66699 26.4397 2.66699 21.5863V10.4263C2.66699 5.55968 5.56033 2.66634 10.4137 2.66634H21.5737C26.427 2.66634 29.3203 5.55968 29.3203 10.413V21.5863C29.3337 26.4397 26.4403 29.333 21.587 29.333Z" fill="url(#paint0_linear_298_13558)"/>
<path d="M22.4406 19.453C22.3472 19.6797 22.1606 19.8664 21.9339 19.9597C21.8272 19.9997 21.7072 20.0264 21.5872 20.0264H19.1072C18.5872 20.0264 18.1739 19.613 18.1739 19.093C18.1739 18.573 18.5872 18.1597 19.1072 18.1597H19.3472L16.5339 15.3464L15.1739 17.373C15.0139 17.5997 14.7739 17.7597 14.4939 17.7864C14.2006 17.813 13.9472 17.7197 13.7472 17.5197L9.77391 13.5464C9.41391 13.1864 9.41391 12.5997 9.77391 12.2264C9.96057 12.0397 10.1872 11.9597 10.4272 11.9597C10.6672 11.9597 10.9072 12.053 11.0806 12.2264L14.2539 15.3997L15.6139 13.373C15.7739 13.1464 16.0139 12.9864 16.2939 12.9597C16.5872 12.933 16.8406 13.0264 17.0406 13.2264L20.6672 16.853V16.613C20.6672 16.093 21.0806 15.6797 21.6006 15.6797C22.1206 15.6797 22.5339 16.093 22.5339 16.613V19.1064C22.5072 19.2264 22.4939 19.3464 22.4406 19.453Z" fill="url(#paint1_linear_298_13558)"/>
<defs>
<linearGradient id="paint0_linear_298_13558" x1="15.9937" y1="29.333" x2="15.9937" y2="2.66634" gradientUnits="userSpaceOnUse">
<stop stop-color="#DC5252"/>
<stop offset="1" stop-color="#AA4E4E"/>
</linearGradient>
<linearGradient id="paint1_linear_298_13558" x1="16.0189" y1="20.0264" x2="16.0189" y2="11.9597" gradientUnits="userSpaceOnUse">
<stop stop-color="#FF4C4C"/>
<stop offset="1" stop-color="#FF4C4C" stop-opacity="0.54"/>
</linearGradient>
</defs>
</svg>
